images/3235067.svg

<?xml version="1.0" encoding="UTF-8"?>
<svg xmlns="http://www.w3.org/2000/svg" xmlns:xlink="http://www.w3.org/1999/xlink" width="300pt" height="300pt" viewBox="0 0 300 300" version="1.1">
<defs>
<g>
<symbol overflow="visible" id="glyph0-0">
<path style="stroke:none;" d="M 0.453125 1.59375 L 0.453125 -6.34375 L 4.953125 -6.34375 L 4.953125 1.59375 Z M 0.953125 1.09375 L 4.453125 1.09375 L 4.453125 -5.84375 L 0.953125 -5.84375 Z M 0.953125 1.09375 "/>
</symbol>
<symbol overflow="visible" id="glyph0-1">
<path style="stroke:none;" d="M 3.546875 -5.953125 C 2.898438 -5.953125 2.382812 -5.710938 2 -5.234375 C 1.625 -4.753906 1.4375 -4.101562 1.4375 -3.28125 C 1.4375 -2.445312 1.625 -1.789062 2 -1.3125 C 2.382812 -0.832031 2.898438 -0.59375 3.546875 -0.59375 C 4.191406 -0.59375 4.703125 -0.832031 5.078125 -1.3125 C 5.453125 -1.789062 5.640625 -2.445312 5.640625 -3.28125 C 5.640625 -4.101562 5.453125 -4.753906 5.078125 -5.234375 C 4.703125 -5.710938 4.191406 -5.953125 3.546875 -5.953125 Z M 3.546875 -6.6875 C 4.460938 -6.6875 5.195312 -6.375 5.75 -5.75 C 6.300781 -5.132812 6.578125 -4.3125 6.578125 -3.28125 C 6.578125 -2.238281 6.300781 -1.410156 5.75 -0.796875 C 5.195312 -0.179688 4.460938 0.125 3.546875 0.125 C 2.617188 0.125 1.878906 -0.179688 1.328125 -0.796875 C 0.773438 -1.410156 0.5 -2.238281 0.5 -3.28125 C 0.5 -4.3125 0.773438 -5.132812 1.328125 -5.75 C 1.878906 -6.375 2.617188 -6.6875 3.546875 -6.6875 Z M 3.546875 -6.6875 "/>
</symbol>
<symbol overflow="visible" id="glyph0-2">
<path style="stroke:none;" d="M 0.890625 -6.5625 L 2.078125 -6.5625 L 4.984375 -1.078125 L 4.984375 -6.5625 L 5.84375 -6.5625 L 5.84375 0 L 4.65625 0 L 1.75 -5.484375 L 1.75 0 L 0.890625 0 Z M 0.890625 -6.5625 "/>
</symbol>
</g>
</defs>
<g id="surface30981">
<rect x="0" y="0" width="300" height="300" style="fill:rgb(100%,100%,100%);fill-opacity:1;stroke:none;"/>
<path style="fill:none;stroke-width:1.2;stroke-linecap:butt;stroke-linejoin:miter;stroke:rgb(0%,0%,0%);stroke-opacity:1;stroke-miterlimit:10;" d="M 35.25 140.386719 L 45.382812 144.265625 "/>
<path style="fill:none;stroke-width:1.2;stroke-linecap:butt;stroke-linejoin:miter;stroke:rgb(100%,0%,0%);stroke-opacity:1;stroke-miterlimit:10;" d="M 45.382812 144.265625 L 55.511719 148.148438 "/>
<path style="fill:none;stroke-width:1.2;stroke-linecap:butt;stroke-linejoin:miter;stroke:rgb(100%,0%,0%);stroke-opacity:1;stroke-miterlimit:10;" d="M 55.511719 148.148438 L 63.9375 141.3125 "/>
<path style="fill:none;stroke-width:1.2;stroke-linecap:butt;stroke-linejoin:miter;stroke:rgb(0%,0%,0%);stroke-opacity:1;stroke-miterlimit:10;" d="M 63.9375 141.3125 L 72.363281 134.480469 "/>
<path style=" stroke:none;fill-rule:nonzero;fill:rgb(100%,100%,100%);fill-opacity:1;" d="M 51.511719 142.648438 L 59.511719 142.648438 L 59.511719 153.648438 L 51.511719 153.648438 Z M 51.511719 142.648438 "/>
<g style="fill:rgb(100%,0%,0%);fill-opacity:1;">
  <use xlink:href="#glyph0-1" x="51.511719" y="151.311523"/>
</g>
<path style="fill:none;stroke-width:1.2;stroke-linecap:butt;stroke-linejoin:miter;stroke:rgb(0%,0%,0%);stroke-opacity:1;stroke-miterlimit:10;" d="M 72.363281 134.480469 L 68.953125 113.050781 "/>
<path style="fill:none;stroke-width:1.2;stroke-linecap:butt;stroke-linejoin:miter;stroke:rgb(0%,0%,0%);stroke-opacity:1;stroke-miterlimit:10;" d="M 77.0625 131.535156 L 74.335938 114.390625 "/>
<path style="fill:none;stroke-width:1.2;stroke-linecap:butt;stroke-linejoin:miter;stroke:rgb(0%,0%,0%);stroke-opacity:1;stroke-miterlimit:10;" d="M 92.625 142.238281 L 72.363281 134.480469 "/>
<path style="fill:none;stroke-width:1.2;stroke-linecap:butt;stroke-linejoin:miter;stroke:rgb(0%,0%,0%);stroke-opacity:1;stroke-miterlimit:10;" d="M 68.953125 113.050781 L 85.804688 99.386719 "/>
<path style="fill:none;stroke-width:1.2;stroke-linecap:butt;stroke-linejoin:miter;stroke:rgb(0%,0%,0%);stroke-opacity:1;stroke-miterlimit:10;" d="M 85.804688 99.386719 L 106.066406 107.144531 "/>
<path style="fill:none;stroke-width:1.2;stroke-linecap:butt;stroke-linejoin:miter;stroke:rgb(0%,0%,0%);stroke-opacity:1;stroke-miterlimit:10;" d="M 86.003906 104.929688 L 102.214844 111.136719 "/>
<path style="fill:none;stroke-width:1.2;stroke-linecap:butt;stroke-linejoin:miter;stroke:rgb(0%,0%,0%);stroke-opacity:1;stroke-miterlimit:10;" d="M 106.066406 107.144531 L 109.476562 128.574219 "/>
<path style="fill:none;stroke-width:1.2;stroke-linecap:butt;stroke-linejoin:miter;stroke:rgb(0%,0%,0%);stroke-opacity:1;stroke-miterlimit:10;" d="M 109.476562 128.574219 L 92.625 142.238281 "/>
<path style="fill:none;stroke-width:1.2;stroke-linecap:butt;stroke-linejoin:miter;stroke:rgb(0%,0%,0%);stroke-opacity:1;stroke-miterlimit:10;" d="M 104.574219 125.972656 L 91.09375 136.90625 "/>
<path style="fill:none;stroke-width:1.2;stroke-linecap:butt;stroke-linejoin:miter;stroke:rgb(0%,0%,0%);stroke-opacity:1;stroke-miterlimit:10;" d="M 92.625 142.238281 L 96.035156 163.667969 "/>
<path style="fill:none;stroke-width:1.2;stroke-linecap:butt;stroke-linejoin:miter;stroke:rgb(0%,0%,0%);stroke-opacity:1;stroke-miterlimit:10;" d="M 96.035156 163.667969 L 106.167969 167.546875 "/>
<path style="fill:none;stroke-width:1.2;stroke-linecap:butt;stroke-linejoin:miter;stroke:rgb(0%,0%,100%);stroke-opacity:1;stroke-miterlimit:10;" d="M 106.167969 167.546875 L 116.296875 171.425781 "/>
<path style="fill:none;stroke-width:1.2;stroke-linecap:butt;stroke-linejoin:miter;stroke:rgb(0%,0%,100%);stroke-opacity:1;stroke-miterlimit:10;" d="M 116.296875 171.425781 L 118.003906 182.140625 "/>
<path style="fill:none;stroke-width:1.2;stroke-linecap:butt;stroke-linejoin:miter;stroke:rgb(0%,0%,0%);stroke-opacity:1;stroke-miterlimit:10;" d="M 118.003906 182.140625 L 119.707031 192.855469 "/>
<path style="fill:none;stroke-width:1.2;stroke-linecap:butt;stroke-linejoin:miter;stroke:rgb(0%,0%,0%);stroke-opacity:1;stroke-miterlimit:10;" d="M 133.148438 157.761719 L 124.722656 164.59375 "/>
<path style="fill:none;stroke-width:1.2;stroke-linecap:butt;stroke-linejoin:miter;stroke:rgb(0%,0%,100%);stroke-opacity:1;stroke-miterlimit:10;" d="M 124.722656 164.59375 L 116.296875 171.425781 "/>
<path style=" stroke:none;fill-rule:nonzero;fill:rgb(100%,100%,100%);fill-opacity:1;" d="M 113.296875 165.925781 L 120.296875 165.925781 L 120.296875 176.925781 L 113.296875 176.925781 Z M 113.296875 165.925781 "/>
<g style="fill:rgb(0%,0%,100%);fill-opacity:1;">
  <use xlink:href="#glyph0-2" x="113.296875" y="174.588867"/>
</g>
<path style="fill:none;stroke-width:1.2;stroke-linecap:butt;stroke-linejoin:miter;stroke:rgb(0%,0%,0%);stroke-opacity:1;stroke-miterlimit:10;" d="M 119.707031 192.855469 L 139.96875 200.613281 "/>
<path style="fill:none;stroke-width:1.2;stroke-linecap:butt;stroke-linejoin:miter;stroke:rgb(0%,0%,0%);stroke-opacity:1;stroke-miterlimit:10;" d="M 139.96875 200.613281 L 156.820312 186.949219 "/>
<path style="fill:none;stroke-width:1.2;stroke-linecap:butt;stroke-linejoin:miter;stroke:rgb(0%,0%,0%);stroke-opacity:1;stroke-miterlimit:10;" d="M 156.820312 186.949219 L 153.410156 165.519531 "/>
<path style="fill:none;stroke-width:1.2;stroke-linecap:butt;stroke-linejoin:miter;stroke:rgb(0%,0%,0%);stroke-opacity:1;stroke-miterlimit:10;" d="M 153.410156 165.519531 L 133.148438 157.761719 "/>
<path style="fill:none;stroke-width:1.2;stroke-linecap:butt;stroke-linejoin:miter;stroke:rgb(0%,0%,0%);stroke-opacity:1;stroke-miterlimit:10;" d="M 153.410156 165.519531 L 173.671875 173.28125 "/>
<path style="fill:none;stroke-width:1.2;stroke-linecap:butt;stroke-linejoin:miter;stroke:rgb(0%,0%,0%);stroke-opacity:1;stroke-miterlimit:10;" d="M 150 144.09375 L 153.410156 165.519531 "/>
<path style="fill:none;stroke-width:1.2;stroke-linecap:butt;stroke-linejoin:miter;stroke:rgb(0%,0%,0%);stroke-opacity:1;stroke-miterlimit:10;" d="M 173.671875 173.28125 L 190.523438 159.613281 "/>
<path style="fill:none;stroke-width:1.2;stroke-linecap:butt;stroke-linejoin:miter;stroke:rgb(0%,0%,0%);stroke-opacity:1;stroke-miterlimit:10;" d="M 190.523438 159.613281 L 188.820312 148.898438 "/>
<path style="fill:none;stroke-width:1.2;stroke-linecap:butt;stroke-linejoin:miter;stroke:rgb(0%,0%,100%);stroke-opacity:1;stroke-miterlimit:10;" d="M 188.820312 148.898438 L 187.113281 138.1875 "/>
<path style="fill:none;stroke-width:1.2;stroke-linecap:butt;stroke-linejoin:miter;stroke:rgb(0%,0%,100%);stroke-opacity:1;stroke-miterlimit:10;" d="M 187.113281 138.1875 L 176.980469 134.304688 "/>
<path style="fill:none;stroke-width:1.2;stroke-linecap:butt;stroke-linejoin:miter;stroke:rgb(0%,0%,0%);stroke-opacity:1;stroke-miterlimit:10;" d="M 176.980469 134.304688 L 166.851562 130.425781 "/>
<path style="fill:none;stroke-width:1.2;stroke-linecap:butt;stroke-linejoin:miter;stroke:rgb(0%,0%,100%);stroke-opacity:1;stroke-miterlimit:10;" d="M 187.113281 138.1875 L 195.539062 131.351562 "/>
<path style="fill:none;stroke-width:1.2;stroke-linecap:butt;stroke-linejoin:miter;stroke:rgb(0%,0%,0%);stroke-opacity:1;stroke-miterlimit:10;" d="M 195.539062 131.351562 L 203.964844 124.519531 "/>
<path style=" stroke:none;fill-rule:nonzero;fill:rgb(100%,100%,100%);fill-opacity:1;" d="M 184.113281 132.6875 L 191.113281 132.6875 L 191.113281 143.6875 L 184.113281 143.6875 Z M 184.113281 132.6875 "/>
<g style="fill:rgb(0%,0%,100%);fill-opacity:1;">
  <use xlink:href="#glyph0-2" x="184.113281" y="141.350586"/>
</g>
<path style="fill:none;stroke-width:1.2;stroke-linecap:butt;stroke-linejoin:miter;stroke:rgb(0%,0%,0%);stroke-opacity:1;stroke-miterlimit:10;" d="M 166.851562 130.425781 L 150 144.09375 "/>
<path style="fill:none;stroke-width:1.2;stroke-linecap:butt;stroke-linejoin:miter;stroke:rgb(0%,0%,0%);stroke-opacity:1;stroke-miterlimit:10;" d="M 206.484375 124.117188 L 204.78125 113.40625 "/>
<path style="fill:none;stroke-width:1.2;stroke-linecap:butt;stroke-linejoin:miter;stroke:rgb(100%,0%,0%);stroke-opacity:1;stroke-miterlimit:10;" d="M 204.78125 113.40625 L 203.074219 102.691406 "/>
<path style="fill:none;stroke-width:1.2;stroke-linecap:butt;stroke-linejoin:miter;stroke:rgb(0%,0%,0%);stroke-opacity:1;stroke-miterlimit:10;" d="M 201.445312 124.921875 L 199.738281 114.207031 "/>
<path style="fill:none;stroke-width:1.2;stroke-linecap:butt;stroke-linejoin:miter;stroke:rgb(100%,0%,0%);stroke-opacity:1;stroke-miterlimit:10;" d="M 199.738281 114.207031 L 198.035156 103.492188 "/>
<path style="fill:none;stroke-width:1.2;stroke-linecap:butt;stroke-linejoin:miter;stroke:rgb(0%,0%,0%);stroke-opacity:1;stroke-miterlimit:10;" d="M 203.964844 124.519531 L 224.226562 132.28125 "/>
<path style=" stroke:none;fill-rule:nonzero;fill:rgb(100%,100%,100%);fill-opacity:1;" d="M 196.554688 97.59375 L 204.554688 97.59375 L 204.554688 108.59375 L 196.554688 108.59375 Z M 196.554688 97.59375 "/>
<g style="fill:rgb(100%,0%,0%);fill-opacity:1;">
  <use xlink:href="#glyph0-1" x="196.554688" y="106.256836"/>
</g>
<path style="fill:none;stroke-width:1.2;stroke-linecap:butt;stroke-linejoin:miter;stroke:rgb(0%,0%,0%);stroke-opacity:1;stroke-miterlimit:10;" d="M 224.226562 132.28125 L 225.929688 142.992188 "/>
<path style="fill:none;stroke-width:1.2;stroke-linecap:butt;stroke-linejoin:miter;stroke:rgb(0%,0%,100%);stroke-opacity:1;stroke-miterlimit:10;" d="M 225.929688 142.992188 L 227.636719 153.707031 "/>
<path style="fill:none;stroke-width:1.2;stroke-linecap:butt;stroke-linejoin:miter;stroke:rgb(0%,0%,0%);stroke-opacity:1;stroke-miterlimit:10;" d="M 229.609375 133.621094 L 230.972656 142.191406 "/>
<path style="fill:none;stroke-width:1.2;stroke-linecap:butt;stroke-linejoin:miter;stroke:rgb(0%,0%,100%);stroke-opacity:1;stroke-miterlimit:10;" d="M 230.972656 142.191406 L 232.335938 150.761719 "/>
<path style="fill:none;stroke-width:1.2;stroke-linecap:butt;stroke-linejoin:miter;stroke:rgb(0%,0%,0%);stroke-opacity:1;stroke-miterlimit:10;" d="M 241.078125 118.613281 L 224.226562 132.28125 "/>
<path style="fill:none;stroke-width:1.2;stroke-linecap:butt;stroke-linejoin:miter;stroke:rgb(0%,0%,100%);stroke-opacity:1;stroke-miterlimit:10;" d="M 227.636719 153.707031 L 237.769531 157.585938 "/>
<path style="fill:none;stroke-width:1.2;stroke-linecap:butt;stroke-linejoin:miter;stroke:rgb(0%,0%,0%);stroke-opacity:1;stroke-miterlimit:10;" d="M 237.769531 157.585938 L 247.898438 161.46875 "/>
<path style=" stroke:none;fill-rule:nonzero;fill:rgb(100%,100%,100%);fill-opacity:1;" d="M 224.636719 148.207031 L 231.636719 148.207031 L 231.636719 159.207031 L 224.636719 159.207031 Z M 224.636719 148.207031 "/>
<g style="fill:rgb(0%,0%,100%);fill-opacity:1;">
  <use xlink:href="#glyph0-2" x="224.636719" y="156.870117"/>
</g>
<path style="fill:none;stroke-width:1.2;stroke-linecap:butt;stroke-linejoin:miter;stroke:rgb(0%,0%,0%);stroke-opacity:1;stroke-miterlimit:10;" d="M 247.898438 161.46875 L 264.75 147.800781 "/>
<path style="fill:none;stroke-width:1.2;stroke-linecap:butt;stroke-linejoin:miter;stroke:rgb(0%,0%,0%);stroke-opacity:1;stroke-miterlimit:10;" d="M 246.367188 156.136719 L 259.847656 145.203125 "/>
<path style="fill:none;stroke-width:1.2;stroke-linecap:butt;stroke-linejoin:miter;stroke:rgb(0%,0%,0%);stroke-opacity:1;stroke-miterlimit:10;" d="M 264.75 147.800781 L 263.042969 137.085938 "/>
<path style="fill:none;stroke-width:1.2;stroke-linecap:butt;stroke-linejoin:miter;stroke:rgb(0%,0%,100%);stroke-opacity:1;stroke-miterlimit:10;" d="M 263.042969 137.085938 L 261.339844 126.371094 "/>
<path style="fill:none;stroke-width:1.2;stroke-linecap:butt;stroke-linejoin:miter;stroke:rgb(0%,0%,100%);stroke-opacity:1;stroke-miterlimit:10;" d="M 261.339844 126.371094 L 251.207031 122.492188 "/>
<path style="fill:none;stroke-width:1.2;stroke-linecap:butt;stroke-linejoin:miter;stroke:rgb(0%,0%,0%);stroke-opacity:1;stroke-miterlimit:10;" d="M 251.207031 122.492188 L 241.078125 118.613281 "/>
<path style="fill:none;stroke-width:1.2;stroke-linecap:butt;stroke-linejoin:miter;stroke:rgb(0%,0%,100%);stroke-opacity:1;stroke-miterlimit:10;" d="M 257.488281 130.363281 L 249.382812 127.261719 "/>
<path style="fill:none;stroke-width:1.2;stroke-linecap:butt;stroke-linejoin:miter;stroke:rgb(0%,0%,0%);stroke-opacity:1;stroke-miterlimit:10;" d="M 249.382812 127.261719 L 241.277344 124.15625 "/>
<path style=" stroke:none;fill-rule:nonzero;fill:rgb(100%,100%,100%);fill-opacity:1;" d="M 258.339844 120.871094 L 265.339844 120.871094 L 265.339844 131.871094 L 258.339844 131.871094 Z M 258.339844 120.871094 "/>
<g style="fill:rgb(0%,0%,100%);fill-opacity:1;">
  <use xlink:href="#glyph0-2" x="258.339844" y="129.53418"/>
</g>
</g>
</svg>

<svg xmlns="http://www.w3.org/2000/svg" xmlns:xlink="http://www.w3.org/1999/xlink" width="300pt" height="300pt" viewBox="0 0 300 300"><defs><symbol overflow="visible"><path d="M.453 1.594v-7.938h4.5v7.938zm.5-.5h3.5v-6.938h-3.5zm0 0"/></symbol><symbol overflow="visible" id="a"><path d="M3.547-5.953c-.65 0-1.164.242-1.547.72-.375.48-.563 1.13-.563 1.952 0 .835.188 1.49.563 1.967.383.48.898.72 1.547.72.644 0 1.156-.24 1.53-.72.376-.476.564-1.132.564-1.968 0-.822-.187-1.474-.562-1.954-.375-.477-.887-.72-1.53-.72zm0-.734c.914 0 1.648.312 2.203.937.55.617.828 1.438.828 2.47 0 1.042-.277 1.87-.828 2.483-.555.617-1.29.922-2.203.922-.93 0-1.668-.305-2.22-.922C.774-1.41.5-2.237.5-3.28c0-1.033.273-1.853.828-2.47.55-.625 1.29-.938 2.22-.938zm0 0"/></symbol><symbol overflow="visible" id="b"><path d="M.89-6.563H2.08l2.906 5.485v-5.484h.86V0H4.656L1.75-5.484V0H.89zm0 0"/></symbol></defs><g><path fill="#fff" d="M0 0h300v300H0z"/><path d="M35.25 140.387l10.133 3.88" stroke-width="1.2" stroke="#000" stroke-miterlimit="10" fill="none"/><path d="M45.383 144.266l10.13 3.882M55.512 148.148l8.425-6.835" stroke-width="1.2" stroke="#f00" stroke-miterlimit="10" fill="none"/><path d="M63.938 141.313l8.425-6.833" stroke-width="1.2" stroke="#000" stroke-miterlimit="10" fill="none"/><path d="M51.512 142.648h8v11h-8zm0 0" fill="#fff"/><use xlink:href="#a" x="51.512" y="151.312" fill="#f00"/><path d="M72.363 134.48l-3.41-21.43M77.063 131.535l-2.727-17.144M92.625 142.238l-20.262-7.758M68.953 113.05l16.852-13.663M85.805 99.387l20.26 7.758M86.004 104.93l16.21 6.207M106.066 107.145l3.41 21.43M109.477 128.574l-16.852 13.664M104.574 125.973l-13.48 10.933M92.625 142.238l3.41 21.43M96.035 163.668l10.133 3.88" stroke-width="1.2" stroke="#000" stroke-miterlimit="10" fill="none"/><path d="M106.168 167.547l10.13 3.88M116.297 171.426l1.707 10.715" stroke-width="1.2" stroke="#00f" stroke-miterlimit="10" fill="none"/><path d="M118.004 182.14l1.703 10.715M133.148 157.762l-8.425 6.832" stroke-width="1.2" stroke="#000" stroke-miterlimit="10" fill="none"/><path d="M124.723 164.594l-8.426 6.832" stroke-width="1.2" stroke="#00f" stroke-miterlimit="10" fill="none"/><path d="M113.297 165.926h7v11h-7zm0 0" fill="#fff"/><use xlink:href="#b" x="113.297" y="174.589" fill="#00f"/><path d="M119.707 192.855l20.262 7.758M139.97 200.613l16.85-13.664M156.82 186.95l-3.41-21.43M153.41 165.52l-20.262-7.758M153.41 165.52l20.262 7.76M150 144.094l3.41 21.426M173.672 173.28l16.85-13.667M190.523 159.613l-1.703-10.715" stroke-width="1.2" stroke="#000" stroke-miterlimit="10" fill="none"/><path d="M188.82 148.898l-1.707-10.71M187.113 138.188l-10.133-3.883" stroke-width="1.2" stroke="#00f" stroke-miterlimit="10" fill="none"/><path d="M176.98 134.305l-10.128-3.88" stroke-width="1.2" stroke="#000" stroke-miterlimit="10" fill="none"/><path d="M187.113 138.188l8.426-6.836" stroke-width="1.2" stroke="#00f" stroke-miterlimit="10" fill="none"/><path d="M195.54 131.352l8.425-6.832" stroke-width="1.2" stroke="#000" stroke-miterlimit="10" fill="none"/><path d="M184.113 132.688h7v11h-7zm0 0" fill="#fff"/><use xlink:href="#b" x="184.113" y="141.351" fill="#00f"/><path d="M166.852 130.426L150 144.094M206.484 124.117l-1.703-10.71" stroke-width="1.2" stroke="#000" stroke-miterlimit="10" fill="none"/><path d="M204.78 113.406l-1.706-10.715" stroke-width="1.2" stroke="#f00" stroke-miterlimit="10" fill="none"/><path d="M201.445 124.922l-1.707-10.715" stroke-width="1.2" stroke="#000" stroke-miterlimit="10" fill="none"/><path d="M199.738 114.207l-1.703-10.715" stroke-width="1.2" stroke="#f00" stroke-miterlimit="10" fill="none"/><path d="M203.965 124.52l20.262 7.76" stroke-width="1.2" stroke="#000" stroke-miterlimit="10" fill="none"/><path d="M196.555 97.594h8v11h-8zm0 0" fill="#fff"/><use xlink:href="#a" x="196.555" y="106.257" fill="#f00"/><path d="M224.227 132.28l1.703 10.712" stroke-width="1.2" stroke="#000" stroke-miterlimit="10" fill="none"/><path d="M225.93 142.992l1.707 10.715" stroke-width="1.2" stroke="#00f" stroke-miterlimit="10" fill="none"/><path d="M229.61 133.62l1.363 8.57" stroke-width="1.2" stroke="#000" stroke-miterlimit="10" fill="none"/><path d="M230.973 142.19l1.363 8.572" stroke-width="1.2" stroke="#00f" stroke-miterlimit="10" fill="none"/><path d="M241.078 118.613l-16.85 13.668" stroke-width="1.2" stroke="#000" stroke-miterlimit="10" fill="none"/><path d="M227.637 153.707l10.133 3.88" stroke-width="1.2" stroke="#00f" stroke-miterlimit="10" fill="none"/><path d="M237.77 157.586l10.128 3.883" stroke-width="1.2" stroke="#000" stroke-miterlimit="10" fill="none"/><path d="M224.637 148.207h7v11h-7zm0 0" fill="#fff"/><use xlink:href="#b" x="224.637" y="156.87" fill="#00f"/><path d="M247.898 161.47l16.852-13.67M246.367 156.137l13.48-10.934M264.75 147.8l-1.707-10.714" stroke-width="1.2" stroke="#000" stroke-miterlimit="10" fill="none"/><path d="M263.043 137.086l-1.703-10.715M261.34 126.37l-10.133-3.878" stroke-width="1.2" stroke="#00f" stroke-miterlimit="10" fill="none"/><path d="M251.207 122.492l-10.13-3.88" stroke-width="1.2" stroke="#000" stroke-miterlimit="10" fill="none"/><path d="M257.488 130.363l-8.105-3.1" stroke-width="1.2" stroke="#00f" stroke-miterlimit="10" fill="none"/><path d="M249.383 127.262l-8.106-3.106" stroke-width="1.2" stroke="#000" stroke-miterlimit="10" fill="none"/><path d="M258.34 120.87h7v11h-7zm0 0" fill="#fff"/><use xlink:href="#b" x="258.34" y="129.534" fill="#00f"/></g></svg>
